**kern
*staff1
*I"P1
=1-
!!pagebreak:original
*clefG2
*k[f#c#g#d#]
*M3/4
8ee\L
8gg#\J
4.ccc#\
8bb\
=2
8gg#\
8r
8ff#\
8r
8ee\
8r
=3
8dd#\L
8ff#\J
8aa\
8r
4r
=4
8dd#\L
8ff#\J
4aa\
8b\L
8b\J
=5
8dd#\L
8ff#\J
4.ccc#\
8bb\
=6
8aa\
8r
8gg#\
8r
8ff#\
8r
=7
8ee\L
8gg#\J
8bb\
8r
=
*-
